;FLAVOR:Marlin
;TIME:587
;Filament used: 0.383384m
;Layer height: 0.1
;MINX:56.201
;MINY:51.238
;MINZ:0.3
;MAXX:93.799
;MAXY:88.762
;MAXZ:3
;Generated with Cura_SteamEngine 4.8.0
M104 S200
M105
M109 S200
M82 ;absolute extrusion mode
G21       ;metric values
G90       ;absolute positioning
M82       ;set extruder to absolute mode
M107      ;start with the fan off
G28 X0 Y0 ;home X/Y
G28 Z0    ;home Z
G92 E0    ;zero the extruded length
G29       ;initiate auto bed leveling sequence
G92 E0
G92 E0
G1 F1500 E-6.5
;LAYER_COUNT:28
;LAYER:0
M107
G0 F3600 X61.811 Y56.624 Z0.3
;TYPE:SKIRT
G1 F1500 E0
G1 F1800 X62.375 Y56.071 E0.03941
G1 X62.762 Y55.75 E0.06449
G1 X64.194 Y54.636 E0.15501
G1 X64.841 Y54.183 E0.19441
G1 X65.27 Y53.932 E0.21921
G1 X66.87 Y53.066 E0.30998
G1 X67.583 Y52.726 E0.34938
G1 X68.053 Y52.548 E0.37446
G1 X69.768 Y51.96 E0.46491
G1 X70.527 Y51.742 E0.50431
G1 X71.012 Y51.645 E0.52898
G1 X72.807 Y51.345 E0.61978
G1 X73.592 Y51.254 E0.6592
G1 X74.093 Y51.238 E0.68421
G1 X75.907 Y51.238 E0.77471
G1 X76.696 Y51.278 E0.81413
G1 X77.193 Y51.345 E0.83915
G1 X78.988 Y51.645 E0.92994
G1 X79.759 Y51.814 E0.96932
G1 X80.232 Y51.96 E0.99402
G1 X81.947 Y52.548 E1.08447
G1 X82.68 Y52.841 E1.12385
G1 X83.13 Y53.066 E1.14895
G1 X84.73 Y53.932 E1.23972
G1 X85.404 Y54.343 E1.2791
G1 X85.806 Y54.636 E1.30392
G1 X87.238 Y55.75 E1.39443
G1 X87.836 Y56.265 E1.43381
G1 X88.189 Y56.624 E1.45893
G1 X89.422 Y57.964 E1.54977
G1 X89.926 Y58.572 E1.58917
G1 X90.212 Y58.98 E1.61403
G1 X91.205 Y60.5 E1.70461
G1 X91.603 Y61.182 E1.74401
G1 X91.817 Y61.63 E1.76878
G1 X92.546 Y63.29 E1.85923
G1 X92.826 Y64.028 E1.89861
G1 X92.966 Y64.512 E1.92375
G1 X93.412 Y66.274 E2.01443
G1 X93.566 Y67.048 E2.0538
G1 X93.623 Y67.544 E2.07871
G1 X93.773 Y69.354 E2.16932
G1 X93.799 Y70.143 E2.2087
G1 X93.773 Y70.641 E2.23358
G1 X93.623 Y72.455 E2.32439
G1 X93.519 Y73.237 E2.36375
G1 X93.412 Y73.725 E2.38867
G1 X92.967 Y75.484 E2.47919
G1 X92.735 Y76.239 E2.5186
G1 X92.547 Y76.706 E2.54372
G1 X91.817 Y78.369 E2.63432
G1 X91.464 Y79.075 E2.6737
G1 X91.205 Y79.5 E2.69854
G1 X90.212 Y81.02 E2.78912
G1 X89.747 Y81.658 E2.8285
G1 X89.422 Y82.036 E2.85337
G1 X88.189 Y83.376 E2.94422
G1 X87.625 Y83.929 E2.98363
G1 X87.238 Y84.25 E3.00871
G1 X85.806 Y85.364 E3.09923
G1 X85.159 Y85.817 E3.13863
G1 X84.73 Y86.068 E3.16343
G1 X83.13 Y86.934 E3.2542
G1 X82.417 Y87.274 E3.29361
G1 X81.947 Y87.452 E3.31868
G1 X80.232 Y88.04 E3.40913
G1 X79.473 Y88.258 E3.44853
G1 X78.988 Y88.355 E3.4732
G1 X77.193 Y88.655 E3.564
G1 X76.408 Y88.746 E3.60343
G1 X75.907 Y88.762 E3.62843
G1 X74.093 Y88.762 E3.71893
G1 X73.304 Y88.722 E3.75835
G1 X72.807 Y88.655 E3.78337
G1 X71.012 Y88.355 E3.87416
G1 X70.241 Y88.186 E3.91354
G1 X69.768 Y88.04 E3.93824
G1 X68.053 Y87.452 E4.02869
G1 X67.32 Y87.159 E4.06807
G1 X66.87 Y86.934 E4.09317
G1 X65.27 Y86.068 E4.18394
G1 X64.596 Y85.657 E4.22332
G1 X64.194 Y85.364 E4.24814
G1 X62.762 Y84.25 E4.33866
G1 X62.164 Y83.735 E4.37803
G1 X61.811 Y83.376 E4.40315
G1 X60.578 Y82.036 E4.494
G1 X60.074 Y81.428 E4.5334
G1 X59.788 Y81.02 E4.55825
G1 X58.795 Y79.5 E4.64884
G1 X58.397 Y78.818 E4.68823
G1 X58.183 Y78.369 E4.71305
G1 X57.453 Y76.706 E4.80365
G1 X57.172 Y75.968 E4.84305
G1 X57.033 Y75.484 E4.86818
G1 X56.588 Y73.725 E4.9587
G1 X56.434 Y72.951 E4.99807
G1 X56.377 Y72.456 E5.02293
G1 X56.227 Y70.646 E5.11354
G1 X56.201 Y69.857 E5.15292
G1 X56.227 Y69.359 E5.1778
G1 X56.377 Y67.545 E5.26861
G1 X56.481 Y66.763 E5.30797
G1 X56.588 Y66.275 E5.33289
G1 X57.033 Y64.516 E5.42342
G1 X57.265 Y63.761 E5.46282
G1 X57.453 Y63.294 E5.48794
G1 X58.183 Y61.631 E5.57855
G1 X58.536 Y60.925 E5.61793
G1 X58.795 Y60.5 E5.64276
G1 X59.788 Y58.98 E5.73334
G1 X60.253 Y58.342 E5.77272
G1 X60.578 Y57.964 E5.7976
G1 X61.811 Y56.624 E5.88844
G0 F3600 X62.106 Y56.895
G1 F1800 X62.655 Y56.357 E5.92679
G1 X63.007 Y56.065 E5.94961
G1 X64.439 Y54.951 E6.04012
G1 X65.07 Y54.511 E6.0785
G1 X65.461 Y54.284 E6.10106
G1 X67.061 Y53.418 E6.19183
G1 X67.755 Y53.088 E6.23016
G1 X68.183 Y52.926 E6.253
G1 X69.898 Y52.338 E6.34345
G1 X70.638 Y52.127 E6.38184
G1 X71.078 Y52.039 E6.40422
G1 X72.873 Y51.739 E6.49502
G1 X73.637 Y51.652 E6.53338
G1 X74.093 Y51.638 E6.55614
G1 X75.907 Y51.638 E6.64664
G1 X76.675 Y51.678 E6.68501
G1 X77.127 Y51.739 E6.70776
G1 X78.922 Y52.039 E6.79856
G1 X79.673 Y52.205 E6.83693
G1 X80.102 Y52.338 E6.85934
G1 X81.817 Y52.926 E6.94979
G1 X82.531 Y53.213 E6.98818
G1 X82.939 Y53.418 E7.01096
G1 X84.539 Y54.284 E7.10173
G1 X85.196 Y54.685 E7.14013
G1 X85.561 Y54.951 E7.16266
G1 X86.993 Y56.065 E7.25318
G1 X87.574 Y56.568 E7.29152
G1 X87.894 Y56.895 E7.31434
G1 X89.127 Y58.235 E7.40519
G1 X89.618 Y58.828 E7.4436
G1 X89.877 Y59.199 E7.46617
G1 X90.87 Y60.719 E7.55676
G1 X91.257 Y61.384 E7.59514
G1 X91.45 Y61.791 E7.61761
G1 X92.179 Y63.451 E7.70807
G1 X92.452 Y64.17 E7.74644
G1 X92.578 Y64.61 E7.76927
G1 X93.024 Y66.372 E7.85995
G1 X93.173 Y67.127 E7.89834
G1 X93.225 Y67.577 E7.92094
G1 X93.375 Y69.387 E8.01155
G1 X93.398 Y70.156 E8.04994
G1 X93.375 Y70.608 E8.07252
G1 X93.225 Y72.422 E8.16333
G1 X93.122 Y73.184 E8.20169
G1 X93.024 Y73.627 E8.22432
G1 X92.579 Y75.386 E8.31484
G1 X92.352 Y76.121 E8.35322
G1 X92.181 Y76.545 E8.37603
G1 X91.451 Y78.208 E8.46664
G1 X91.106 Y78.896 E8.50504
G1 X90.87 Y79.281 E8.52757
G1 X89.877 Y80.801 E8.61815
G1 X89.424 Y81.422 E8.6565
G1 X89.127 Y81.765 E8.67914
G1 X87.894 Y83.105 E8.76998
G1 X87.345 Y83.643 E8.80833
G1 X86.993 Y83.935 E8.83115
G1 X85.561 Y85.049 E8.92166
G1 X84.93 Y85.489 E8.96004
G1 X84.539 Y85.716 E8.9826
G1 X82.939 Y86.582 E9.07337
G1 X82.245 Y86.912 E9.1117
G1 X81.817 Y87.074 E9.13454
G1 X80.102 Y87.662 E9.22499
G1 X79.362 Y87.873 E9.26338
G1 X78.922 Y87.961 E9.28576
G1 X77.127 Y88.261 E9.37656
G1 X76.363 Y88.348 E9.41492
G1 X75.907 Y88.362 E9.43768
G1 X74.093 Y88.362 E9.52818
G1 X73.325 Y88.322 E9.56655
G1 X72.873 Y88.261 E9.5893
G1 X71.078 Y87.961 E9.6801
G1 X70.327 Y87.795 E9.71847
G1 X69.898 Y87.662 E9.74088
G1 X68.183 Y87.074 E9.83133
G1 X67.469 Y86.787 E9.86972
G1 X67.061 Y86.582 E9.8925
G1 X65.461 Y85.716 E9.98327
G1 X64.804 Y85.315 E10.02167
G1 X64.439 Y85.049 E10.0442
G1 X63.007 Y83.935 E10.13472
G1 X62.426 Y83.432 E10.17306
G1 X62.106 Y83.105 E10.19588
G1 X60.873 Y81.765 E10.28673
G1 X60.382 Y81.172 E10.32514
G1 X60.123 Y80.801 E10.34771
G1 X59.13 Y79.281 E10.4383
G1 X58.743 Y78.616 E10.47668
G1 X58.549 Y78.208 E10.49922
G1 X57.819 Y76.545 E10.58983
G1 X57.547 Y75.826 E10.62818
G1 X57.421 Y75.386 E10.65102
G1 X56.976 Y73.627 E10.74154
G1 X56.826 Y72.872 E10.77994
G1 X56.775 Y72.423 E10.80249
G1 X56.625 Y70.613 E10.8931
G1 X56.602 Y69.844 E10.93148
G1 X56.625 Y69.392 E10.95406
G1 X56.775 Y67.578 E11.04487
G1 X56.878 Y66.816 E11.08323
G1 X56.976 Y66.373 E11.10587
G1 X57.421 Y64.614 E11.19639
G1 X57.648 Y63.879 E11.23477
G1 X57.819 Y63.455 E11.25758
G1 X58.549 Y61.792 E11.34818
G1 X58.894 Y61.104 E11.38658
G1 X59.13 Y60.719 E11.40911
G1 X60.123 Y59.199 E11.49969
G1 X60.576 Y58.578 E11.53804
G1 X60.873 Y58.235 E11.56068
G1 X62.106 Y56.895 E11.65153
G0 F3600 X62.4 Y57.166
G1 F1800 X62.935 Y56.644 E11.68882
G1 X63.253 Y56.381 E11.70941
G1 X64.685 Y55.267 E11.79992
G1 X65.299 Y54.84 E11.83723
G1 X65.651 Y54.636 E11.85753
G1 X67.251 Y53.77 E11.9483
G1 X67.927 Y53.449 E11.98563
G1 X68.313 Y53.304 E12.0062
G1 X70.028 Y52.716 E12.09665
G1 X70.747 Y52.512 E12.13394
G1 X71.144 Y52.434 E12.15413
G1 X72.939 Y52.134 E12.24492
G1 X73.682 Y52.05 E12.28223
G1 X74.093 Y52.038 E12.30274
G1 X75.907 Y52.038 E12.39324
G1 X76.654 Y52.078 E12.43056
G1 X77.061 Y52.134 E12.45106
G1 X78.856 Y52.434 E12.54185
G1 X79.586 Y52.596 E12.57916
G1 X79.972 Y52.716 E12.59933
G1 X81.687 Y53.304 E12.68978
G1 X82.381 Y53.584 E12.72711
G1 X82.749 Y53.77 E12.74768
G1 X84.349 Y54.636 E12.83845
G1 X84.987 Y55.027 E12.87578
G1 X85.315 Y55.267 E12.89606
G1 X86.747 Y56.381 E12.98657
G1 X87.312 Y56.871 E13.02389
G1 X87.6 Y57.166 E13.04445
G1 X88.833 Y58.506 E13.1353
G1 X89.31 Y59.083 E13.17265
G1 X89.542 Y59.418 E13.19298
G1 X90.535 Y60.938 E13.28356
G1 X90.91 Y61.585 E13.32087
G1 X91.084 Y61.951 E13.34109
G1 X91.813 Y63.611 E13.43154
G1 X92.077 Y64.311 E13.46887
G1 X92.19 Y64.708 E13.48946
G1 X92.636 Y66.47 E13.58014
G1 X92.781 Y67.204 E13.61746
G1 X92.826 Y67.61 E13.63784
G1 X92.976 Y69.42 E13.72846
G1 X92.998 Y70.168 E13.76579
G1 X92.976 Y70.575 E13.78612
G1 X92.826 Y72.389 E13.87693
G1 X92.725 Y73.13 E13.91424
G1 X92.636 Y73.529 E13.93464
G1 X92.191 Y75.288 E14.02516
G1 X91.969 Y76.002 E14.06247
G1 X91.815 Y76.385 E14.08306
G1 X91.085 Y78.048 E14.17367
G1 X90.748 Y78.716 E14.211
G1 X90.535 Y79.062 E14.23127
G1 X89.542 Y80.582 E14.32185
G1 X89.1 Y81.186 E14.35919
G1 X88.833 Y81.494 E14.37952
G1 X87.6 Y82.834 E14.47037
G1 X87.065 Y83.356 E14.50766
G1 X86.747 Y83.619 E14.52825
G1 X85.315 Y84.733 E14.61877
G1 X84.701 Y85.16 E14.65608
G1 X84.349 Y85.364 E14.67638
G1 X82.749 Y86.23 E14.76714
G1 X82.073 Y86.551 E14.80448
G1 X81.687 Y86.696 E14.82505
G1 X79.972 Y87.284 E14.9155
G1 X79.253 Y87.488 E14.95279
G1 X78.856 Y87.566 E14.97297
G1 X77.061 Y87.866 E15.06377
G1 X76.318 Y87.95 E15.10107
G1 X75.907 Y87.962 E15.12159
G1 X74.093 Y87.962 E15.21209
G1 X73.346 Y87.922 E15.24941
G1 X72.939 Y87.866 E15.2699
G1 X71.144 Y87.566 E15.3607
G1 X70.414 Y87.404 E15.39801
G1 X70.028 Y87.284 E15.41817
G1 X68.313 Y86.696 E15.50862
G1 X67.619 Y86.416 E15.54596
G1 X67.251 Y86.23 E15.56653
G1 X65.651 Y85.364 E15.6573
G1 X65.013 Y84.973 E15.69463
G1 X64.685 Y84.733 E15.71491
G1 X63.253 Y83.619 E15.80542
G1 X62.688 Y83.129 E15.84273
G1 X62.4 Y82.834 E15.8633
G1 X61.167 Y81.494 E15.95415
G1 X60.69 Y80.917 E15.9915
G1 X60.458 Y80.582 E16.01183
G1 X59.465 Y79.062 E16.10241
G1 X59.09 Y78.415 E16.13972
G1 X58.915 Y78.048 E16.16
G1 X58.185 Y76.385 E16.25061
G1 X57.922 Y75.685 E16.28792
G1 X57.809 Y75.288 E16.30851
G1 X57.364 Y73.529 E16.39903
G1 X57.219 Y72.795 E16.43636
G1 X57.174 Y72.39 E16.45669
G1 X57.024 Y70.58 E16.5473
G1 X57.002 Y69.832 E16.58464
G1 X57.024 Y69.425 E16.60497
G1 X57.174 Y67.611 E16.69578
G1 X57.275 Y66.87 E16.73309
G1 X57.364 Y66.471 E16.75349
G1 X57.809 Y64.712 E16.84401
G1 X58.031 Y63.998 E16.88131
G1 X58.185 Y63.615 E16.90191
G1 X58.915 Y61.952 E16.99252
G1 X59.252 Y61.284 E17.02984
G1 X59.465 Y60.938 E17.05011
G1 X60.458 Y59.418 E17.14069
G1 X60.9 Y58.814 E17.17803
G1 X61.167 Y58.506 E17.19837
G1 X62.4 Y57.166 E17.28922
G0 F3600 X62.694 Y57.437
G1 F1800 X63.215 Y56.93 E17.32549
G1 X63.498 Y56.697 E17.34378
G1 X64.93 Y55.583 E17.43429
G1 X65.841 Y54.988 E17.48858
G1 X67.441 Y54.122 E17.57934
G1 X68.098 Y53.812 E17.61559
G1 X68.442 Y53.683 E17.63392
G1 X70.157 Y53.095 E17.72437
G1 X71.21 Y52.828 E17.77856
G1 X73.005 Y52.528 E17.86936
G1 X73.727 Y52.448 E17.9056
G1 X74.093 Y52.438 E17.92387
G1 X75.907 Y52.438 E18.01437
G1 X76.632 Y52.478 E18.05059
G1 X76.995 Y52.528 E18.06887
G1 X78.79 Y52.828 E18.15967
G1 X79.843 Y53.095 E18.21387
G1 X81.558 Y53.683 E18.30432
G1 X82.231 Y53.956 E18.34055
G1 X82.559 Y54.122 E18.35889
G1 X84.159 Y54.988 E18.44966
G1 X85.07 Y55.583 E18.50394
G1 X86.502 Y56.697 E18.59446
G1 X87.049 Y57.174 E18.63067
G1 X87.306 Y57.437 E18.64901
G1 X88.539 Y58.777 E18.73986
G1 X89.207 Y59.636 E18.79415
G1 X90.2 Y61.156 E18.88473
G1 X90.718 Y62.112 E18.93898
G1 X91.447 Y63.772 E19.02943
G1 X91.702 Y64.452 E19.06566
G1 X91.802 Y64.806 E19.08401
G1 X92.248 Y66.568 E19.17469
G1 X92.387 Y67.281 E19.21093
G1 X92.427 Y67.643 E19.2291
G1 X92.577 Y69.453 E19.31971
G1 X92.598 Y70.179 E19.35595
G1 X92.578 Y70.542 E19.37409
G1 X92.428 Y72.356 E19.4649
G1 X92.328 Y73.075 E19.50111
G1 X92.248 Y73.431 E19.51932
G1 X91.803 Y75.19 E19.60984
G1 X91.587 Y75.883 E19.64605
G1 X91.448 Y76.224 E19.66442
G1 X90.718 Y77.887 E19.75503
G1 X90.2 Y78.844 E19.80932
G1 X89.207 Y80.364 E19.89991
G1 X88.539 Y81.223 E19.95419
G1 X87.306 Y82.563 E20.04504
G1 X86.785 Y83.07 E20.08131
G1 X86.502 Y83.303 E20.0996
G1 X85.07 Y84.417 E20.19011
G1 X84.159 Y85.012 E20.2444
G1 X82.559 Y85.878 E20.33517
G1 X81.902 Y86.188 E20.37141
G1 X81.558 Y86.317 E20.38974
G1 X79.843 Y86.905 E20.48019
G1 X78.79 Y87.172 E20.53439
G1 X76.995 Y87.472 E20.62518
G1 X76.273 Y87.552 E20.66142
G1 X75.907 Y87.562 E20.67969
G1 X74.093 Y87.562 E20.77019
G1 X73.368 Y87.522 E20.80642
G1 X73.005 Y87.472 E20.8247
G1 X71.21 Y87.172 E20.91549
G1 X70.157 Y86.905 E20.96969
G1 X68.442 Y86.317 E21.06014
G1 X67.769 Y86.044 E21.09637
G1 X67.441 Y85.878 E21.11471
G1 X65.841 Y85.012 E21.20548
G1 X64.93 Y84.417 E21.25977
G1 X63.498 Y83.303 E21.35028
G1 X62.951 Y82.826 E21.38649
G1 X62.694 Y82.563 E21.40483
G1 X61.461 Y81.223 E21.49568
G1 X60.793 Y80.364 E21.54997
G1 X59.8 Y78.844 E21.64055
G1 X59.282 Y77.887 E21.69484
G1 X58.552 Y76.224 E21.78545
G1 X58.297 Y75.544 E21.82168
G1 X58.197 Y75.19 E21.84004
G1 X57.752 Y73.431 E21.93056
G1 X57.573 Y72.357 E21.98488
G1 X57.423 Y70.547 E22.07549
G1 X57.402 Y69.821 E22.11173
G1 X57.422 Y69.458 E22.12986
G1 X57.572 Y67.644 E22.22067
G1 X57.672 Y66.925 E22.25689
G1 X57.752 Y66.569 E22.27509
G1 X58.197 Y64.81 E22.36561
G1 X58.413 Y64.117 E22.40183
G1 X58.552 Y63.776 E22.4202
G1 X59.282 Y62.113 E22.51081
G1 X59.8 Y61.156 E22.5651
G1 X60.793 Y59.636 E22.65568
G1 X61.461 Y58.777 E22.70997
G1 X62.694 Y57.437 E22.80082
G0 F3600 X62.989 Y57.708
G1 F1800 X63.744 Y57.012 E22.85205
G1 X65.176 Y55.898 E22.94256
G1 X66.032 Y55.339 E22.99357
G1 X67.632 Y54.473 E23.08434
G1 X68.572 Y54.061 E23.13554
G1 X70.287 Y53.473 E23.22599
G1 X71.276 Y53.223 E23.27688
G1 X73.071 Y52.923 E23.36768
G1 X74.093 Y52.838 E23.41884
G1 X75.907 Y52.838 E23.50934
G1 X76.929 Y52.923 E23.56051
G1 X78.724 Y53.223 E23.6513
G1 X79.713 Y53.473 E23.7022
G1 X81.428 Y54.061 E23.79265
G1 X82.368 Y54.473 E23.84385
G1 X83.968 Y55.339 E23.93462
G1 X84.824 Y55.898 E23.98562
G1 X86.256 Y57.012 E24.07614
G1 X87.011 Y57.708 E24.12737
G1 X88.244 Y59.048 E24.21822
G1 X88.873 Y59.855 E24.26926
G1 X89.866 Y61.375 E24.35984
G1 X90.352 Y62.273 E24.41079
G1 X91.081 Y63.933 E24.50124
G1 X91.414 Y64.905 E24.5525
G1 X91.86 Y66.667 E24.64318
G1 X92.029 Y67.676 E24.69422
G1 X92.179 Y69.486 E24.78483
G1 X92.179 Y70.509 E24.83586
G1 X92.029 Y72.323 E24.92667
G1 X91.861 Y73.333 E24.97776
G1 X91.416 Y75.092 E25.06828
G1 X91.082 Y76.063 E25.11951
G1 X90.352 Y77.726 E25.21012
G1 X89.866 Y78.625 E25.2611
G1 X88.873 Y80.145 E25.35168
G1 X88.244 Y80.952 E25.40273
G1 X87.011 Y82.292 E25.49358
G1 X86.256 Y82.988 E25.54481
G1 X84.824 Y84.102 E25.63532
G1 X83.968 Y84.661 E25.68633
G1 X82.368 Y85.527 E25.77709
G1 X81.428 Y85.939 E25.8283
G1 X79.713 Y86.527 E25.91875
G1 X78.724 Y86.777 E25.96964
G1 X76.929 Y87.077 E26.06044
G1 X75.907 Y87.162 E26.1116
G1 X74.093 Y87.162 E26.2021
G1 X73.071 Y87.077 E26.25327
G1 X71.276 Y86.777 E26.34406
G1 X70.287 Y86.527 E26.39495
G1 X68.572 Y85.939 E26.48541
G1 X67.632 Y85.527 E26.53661
G1 X66.032 Y84.661 E26.62738
G1 X65.176 Y84.102 E26.67838
G1 X63.744 Y82.988 E26.7689
G1 X62.989 Y82.292 E26.82013
G1 X61.756 Y80.952 E26.91097
G1 X61.127 Y80.145 E26.96202
G1 X60.134 Y78.625 E27.0526
G1 X59.648 Y77.726 E27.10359
G1 X58.918 Y76.063 E27.1942
G1 X58.584 Y75.092 E27.24543
G1 X58.139 Y73.333 E27.33595
G1 X57.971 Y72.324 E27.38698
G1 X57.821 Y70.514 E27.47759
G1 X57.821 Y69.491 E27.52863
G1 X57.971 Y67.677 E27.61944
G1 X58.139 Y66.667 E27.67052
G1 X58.584 Y64.908 E27.76104
G1 X58.918 Y63.937 E27.81227
G1 X59.648 Y62.274 E27.90288
G1 X60.134 Y61.375 E27.95387
G1 X61.127 Y59.855 E28.04445
G1 X61.756 Y59.048 E28.09549
G1 X62.989 Y57.708 E28.18634
G0 F3600 X63.283 Y57.979
G1 F1800 X63.99 Y57.328 E28.23429
G1 X65.422 Y56.214 E28.3248
G1 X66.222 Y55.691 E28.37249
